assets/icons/navigation/tab_orderentry_icon.svg

<svg fill="none" height="20" viewBox="0 0 20 20" width="20" xmlns="http://www.w3.org/2000/svg"><path d="m16.2645 5.92909h-10.0774c-.17453 0-.31601-.14065-.31601-.31415 0-.17351.14148-.31416.31601-.31416h10.0774c.4206 0 .7539.37365.6273.80886l-.0009.00292-1.6027 5.13284-.0035.009c-.1333.3494-.461.6436-.907.6436h-7.23121c-.17453 0-.316-.1406-.316-.3141s.14147-.3142.316-.3142h7.23121c.1274 0 .2455-.0799.3051-.2281l1.5945-5.10632c.0007-.00255-.0009-.00509-.0036-.00551-.0024-.0004-.0055-.00068-.0092-.00068z" style="fill-rule:evenodd;clip-rule:evenodd;fill:#606975;stroke:#606975;stroke-width:.2;stroke-miterlimit:10;stroke-linejoin:round"/><path clip-rule="evenodd" d="m6.19281 5.37626c-.13254 0-.23998.10681-.23998.23857s.10744.23858.23998.23858h10.07739c.0076 0 .0147.00057.0213.00163.0488.00781.0766.05535.0651.09919l-.0736-.01905.0726.02241-1.5963 5.11201c-.0694.1727-.213.2756-.3759.2756h-7.2312c-.13253 0-.23997.1068-.23997.2386 0 .1317.10744.2386.23997.2386h7.2312c.4086 0 .7116-.2692.836-.595l.0026-.0068 1.6018-5.12986.0007-.00219m-.6428-.08398-1.5649 5.01153c-.0499.1219-.1421.1779-.2334.1779h-7.2312c-.21651 0-.39203.1745-.39203.3898 0 .2152.17552.3897.39203.3897h7.2312c.4833 0 .8357-.3194.9781-.6924l.0035-.009 1.6043-5.13723.0012-.00431c.1423-.48906-.235-.90546-.7003-.90546h-10.07739c-.21651 0-.39203.17449-.39203.38973 0 .21525.17552.38974.39203.38974z" fill="#606975" fill-rule="evenodd"/><path d="m5.95283 5.61483c0-.13176.10744-.23857.23998-.23857l10.63169.71229-.0007.00219-1.6018 5.12986-.0026.0068c-.1244.3258-.4274.595-.836.595h-7.2312c-.13253 0-.23997-.1069-.23997-.2386 0-.1318.10744-.2386.23997-.2386h7.2312c.1629 0 .3065-.1029.3759-.2756l1.5963-5.11201-.0726-.02241.0736.01905c.0115-.04384-.0163-.09138-.0651-.09919-.0066-.00106-.0137-.00163-.0213-.00163h-10.07739c-.13254 0-.23998-.10682-.23998-.23858zm10.22887.38974-1.5649 5.01153c-.0499.1219-.1421.1779-.2334.1779h-7.2312c-.21651 0-.39203.1745-.39203.3898 0 .2152.17552.3897.39203.3897h7.2312c.4833 0 .8357-.3194.9781-.6924l.0035-.009 1.6043-5.13723.0012-.00431c.1423-.48906-.235-.90546-.7003-.90546h-10.07739c-.21651 0-.39203.17449-.39203.38973 0 .21525.17552.38974.39203.38974z" stroke="#606975" stroke-linejoin="round" stroke-miterlimit="10" stroke-width=".2"/><path d="m2.15234 4.36764c0-.16313.13303-.29537.29712-.29537h1.76627c.45971 0 .79752.27668.935.60519l.00396.00945 2.67556 8.02089.00182.0065c.02587.0927.14674.1898.30653.1898h6.7904c.1641 0 .2971.1322.2971.2953 0 .1632-.133.2954-.2971.2954h-6.7904c-.43081 0-.83496-.2541-.94408-.63l-2.66467-7.98817c-.06152-.13881-.18303-.21361-.31412-.21361h-1.76627c-.16409 0-.29712-.13224-.29712-.29538z" style="fill-rule:evenodd;clip-rule:evenodd;fill:#606975;stroke:#606975;stroke-width:.2;stroke-miterlimit:10;stroke-linejoin:round"/><path clip-rule="evenodd" d="m1.99994 4.37096c0-.20488.16706-.37096.37314-.37096h1.84845c.49286 0 .85688.29736 1.0052.65174l.00612.01463 2.67655 8.02443.00173.0066c.01489.0534.10021.1344.23327.1344h6.7904c.2061 0 .3732.1661.3732.371 0 .2048-.1671.3709-.3732.3709h-6.7904c-.45599 0-.8955-.2685-1.0167-.6831l-2.66303-7.9833c-.0502-.11037-.14427-.16538-.24314-.16538h-1.84845c-.20608 0-.37314-.16608-.37314-.37096zm.37314-.2198c-.1221 0-.22109.09841-.22109.2198s.09899.2198.22109.2198h1.84845c.16238 0 .31049.09356.38369.25871l.00291.00657 2.66529 7.99116c.09765.3363.46588.5754.87098.5754h6.7904c.1221 0 .2211-.0985.2211-.2198 0-.1214-.099-.2198-.2211-.2198h-6.7904c-.18653 0-.34295-.1132-.37979-.2452l-.00131-.0047-2.67409-8.01643-.00287-.00686c-.12666-.30264-.43826-.55865-.86481-.55865z" fill="#606975" fill-rule="evenodd"/><path d="m7.91113 12.6974-.00173-.0066-2.67655-8.02443-.00612-.01463c-.14832-.35438-.51234-.65174-1.0052-.65174h-1.84845c-.20608 0-.37314.16608-.37314.37096s.16706.37096.37314.37096h1.84845c.09887 0 .19294.05501.24315.16538l2.66302 7.9833c.1212.4146.56071.6831 1.0167.6831h6.7904c.2061 0 .3732-.1661.3732-.3709 0-.2049-.1671-.371-.3732-.371h-6.7904c-.13306 0-.21838-.081-.23327-.1344zm0 0-.07326.0202m-2.75153-8.00779.00287.00686 2.67409 8.01643.00131.0047c.03684.132.19326.2452.37979.2452h6.7904c.1221 0 .2211.0984.2211.2198 0 .1213-.099.2198-.2211.2198h-6.7904c-.4051 0-.77333-.2391-.87098-.5754l-2.66529-7.99116-.00291-.00657c-.0732-.16515-.22131-.25871-.38369-.25871h-1.84845c-.1221 0-.22109-.09841-.22109-.2198s.09899-.2198.22109-.2198h1.84845c.42655 0 .73815.25601.86481.55865zm0 0 .07019-.02903" stroke="#606975" stroke-linejoin="round" stroke-miterlimit="10" stroke-width=".2"/><g clip-rule="evenodd" fill="#606975" fill-rule="evenodd"><path d="m8.3163 15.0394c-.35324 0-.6396.2813-.6396.6284 0 .347.28636.6283.6396.6283s.63959-.2813.63959-.6283c0-.3471-.28635-.6284-.63959-.6284zm-1.27919.6284c0-.6941.57271-1.2567 1.27919-1.2567.70647 0 1.27919.5626 1.27919 1.2567 0 .694-.57272 1.2566-1.27919 1.2566-.70648 0-1.27919-.5626-1.27919-1.2566z" stroke="#606975" stroke-linejoin="round" stroke-miterlimit="10" stroke-width=".2"/><path d="m6.96094 15.6677c0-.7367.60761-1.3323 1.35521-1.3323.74761 0 1.35522.5956 1.35522 1.3323 0 .7366-.60761 1.3322-1.35522 1.3322-.7476 0-1.35521-.5956-1.35521-1.3322zm1.35521-1.1811c-.66534 0-1.20316.5296-1.20316 1.1811 0 .6514.53782 1.181 1.20316 1.181.66535 0 1.20316-.5296 1.20316-1.181 0-.6515-.53781-1.1811-1.20316-1.1811zm0 .6283c-.31211 0-.56357.2483-.56357.5528 0 .3044.25146.5527.56357.5527s.56357-.2483.56357-.5527c0-.3045-.25146-.5528-.56357-.5528zm-.71562.5528c0-.3896.32125-.7039.71562-.7039s.71562.3143.71562.7039c0 .3895-.32125.7038-.71562.7038s-.71562-.3143-.71562-.7038z" stroke="#606975" stroke-linejoin="round" stroke-miterlimit="10" stroke-width=".2"/><path d="m13.8651 15.0394c-.3532 0-.6396.2813-.6396.6284 0 .347.2864.6283.6396.6283.3533 0 .6396-.2813.6396-.6283 0-.3471-.2863-.6284-.6396-.6284zm-1.2792.6284c0-.6941.5727-1.2567 1.2792-1.2567s1.2792.5626 1.2792 1.2567c0 .694-.5727 1.2566-1.2792 1.2566s-1.2792-.5626-1.2792-1.2566z" stroke="#606975" stroke-linejoin="round" stroke-miterlimit="10" stroke-width=".2"/><path d="m12.5098 15.6677c0-.7367.6076-1.3323 1.3552-1.3323s1.3552.5956 1.3552 1.3323c0 .7366-.6076 1.3322-1.3552 1.3322s-1.3552-.5956-1.3552-1.3322zm1.3552-1.1811c-.6654 0-1.2032.5296-1.2032 1.1811 0 .6514.5378 1.181 1.2032 1.181.6653 0 1.2031-.5296 1.2031-1.181 0-.6515-.5378-1.1811-1.2031-1.1811zm0 .6283c-.3121 0-.5636.2483-.5636.5528 0 .3044.2515.5527.5636.5527s.5635-.2483.5635-.5527c0-.3045-.2514-.5528-.5635-.5528zm-.7156.5528c0-.3896.3212-.7039.7156-.7039.3943 0 .7156.3143.7156.7039 0 .3895-.3213.7038-.7156.7038-.3944 0-.7156-.3143-.7156-.7038z" stroke="#606975" stroke-linejoin="round" stroke-miterlimit="10" stroke-width=".2"/><path d="m1.97995.952381c-.54358 0-1.027569.472879-1.027569 1.111109v15.87301c0 .6382.483989 1.1111 1.027569 1.1111h16.04015c.5435 0 1.0275-.4729 1.0275-1.1111v-15.87301c0-.63823-.484-1.111109-1.0275-1.111109zm-1.97995 1.111109c0-1.115046.862523-2.06349 1.97995-2.06349h16.04015c1.1174 0 1.9799.948444 1.9799 2.06349v15.87301c0 1.1151-.8625 2.0635-1.9799 2.0635h-16.04015c-1.117427 0-1.97995-.9484-1.97995-2.0635z"/></g></svg>

<svg width="20" height="20" viewBox="0 0 20 20" fill="none" xmlns="http://www.w3.org/2000/svg">
<path fill-rule="evenodd" clip-rule="evenodd" d="M16.2645 5.92909H6.1871C6.01257 5.92909 5.87109 5.78844 5.87109 5.61494C5.87109 5.44143 6.01257 5.30078 6.1871 5.30078H16.2645C16.6851 5.30078 17.0184 5.67443 16.8918 6.10964L16.8909 6.11256L15.2882 11.2454L15.2847 11.2544C15.1514 11.6038 14.8237 11.898 14.3777 11.898H7.14649C6.97196 11.898 6.83049 11.7574 6.83049 11.5839C6.83049 11.4104 6.97196 11.2697 7.14649 11.2697H14.3777C14.5051 11.2697 14.6232 11.1898 14.6828 11.0416L16.2773 5.93528C16.278 5.93273 16.2764 5.93019 16.2737 5.92977C16.2713 5.92937 16.2682 5.92909 16.2645 5.92909Z" fill="#606975" stroke="#606975" stroke-width="0.2" stroke-miterlimit="10" stroke-linejoin="round"/>
<path fill-rule="evenodd" clip-rule="evenodd" d="M6.19281 5.37626C6.06027 5.37626 5.95283 5.48307 5.95283 5.61483C5.95283 5.74659 6.06027 5.85341 6.19281 5.85341H16.2702C16.2778 5.85341 16.2849 5.85398 16.2915 5.85504C16.3403 5.86285 16.3681 5.91039 16.3566 5.95423L16.283 5.93518L16.3556 5.95759L14.7593 11.0696C14.6899 11.2423 14.5463 11.3452 14.3834 11.3452H7.1522C7.01967 11.3452 6.91223 11.452 6.91223 11.5838C6.91223 11.7155 7.01967 11.8224 7.1522 11.8224H14.3834C14.792 11.8224 15.095 11.5532 15.2194 11.2274L15.222 11.2206L16.8238 6.09074L16.8245 6.08855M16.1817 6.00457L14.6168 11.0161C14.5669 11.138 14.4747 11.194 14.3834 11.194H7.1522C6.93569 11.194 6.76017 11.3685 6.76017 11.5838C6.76017 11.799 6.93569 11.9735 7.1522 11.9735H14.3834C14.8667 11.9735 15.2191 11.6541 15.3615 11.2811L15.365 11.2721L16.9693 6.13487L16.9705 6.13056C17.1128 5.6415 16.7355 5.2251 16.2702 5.2251H6.19281C5.9763 5.2251 5.80078 5.39959 5.80078 5.61483C5.80078 5.83008 5.9763 6.00457 6.19281 6.00457H16.1817Z" fill="#606975"/>
<path d="M5.95283 5.61483C5.95283 5.48307 6.06027 5.37626 6.19281 5.37626L16.8245 6.08855L16.8238 6.09074L15.222 11.2206L15.2194 11.2274C15.095 11.5532 14.792 11.8224 14.3834 11.8224H7.1522C7.01967 11.8224 6.91223 11.7155 6.91223 11.5838C6.91223 11.452 7.01967 11.3452 7.1522 11.3452H14.3834C14.5463 11.3452 14.6899 11.2423 14.7593 11.0696L16.3556 5.95759L16.283 5.93518L16.3566 5.95423C16.3681 5.91039 16.3403 5.86285 16.2915 5.85504C16.2849 5.85398 16.2778 5.85341 16.2702 5.85341H6.19281C6.06027 5.85341 5.95283 5.74659 5.95283 5.61483ZM16.1817 6.00457L14.6168 11.0161C14.5669 11.138 14.4747 11.194 14.3834 11.194H7.1522C6.93569 11.194 6.76017 11.3685 6.76017 11.5838C6.76017 11.799 6.93569 11.9735 7.1522 11.9735H14.3834C14.8667 11.9735 15.2191 11.6541 15.3615 11.2811L15.365 11.2721L16.9693 6.13487L16.9705 6.13056C17.1128 5.6415 16.7355 5.2251 16.2702 5.2251H6.19281C5.9763 5.2251 5.80078 5.39959 5.80078 5.61483C5.80078 5.83008 5.9763 6.00457 6.19281 6.00457H16.1817Z" stroke="#606975" stroke-width="0.2" stroke-miterlimit="10" stroke-linejoin="round"/>
<path fill-rule="evenodd" clip-rule="evenodd" d="M2.15234 4.36764C2.15234 4.20451 2.28537 4.07227 2.44946 4.07227H4.21573C4.67544 4.07227 5.01325 4.34895 5.15073 4.67746L5.15469 4.68691L7.83025 12.7078L7.83207 12.7143C7.85794 12.807 7.97881 12.9041 8.1386 12.9041H14.929C15.0931 12.9041 15.2261 13.0363 15.2261 13.1994C15.2261 13.3626 15.0931 13.4948 14.929 13.4948H8.1386C7.70779 13.4948 7.30364 13.2407 7.19452 12.8648L4.52985 4.87663C4.46833 4.73782 4.34682 4.66302 4.21573 4.66302H2.44946C2.28537 4.66302 2.15234 4.53078 2.15234 4.36764Z" fill="#606975" stroke="#606975" stroke-width="0.2" stroke-miterlimit="10" stroke-linejoin="round"/>
<path fill-rule="evenodd" clip-rule="evenodd" d="M1.99994 4.37096C1.99994 4.16608 2.167 4 2.37308 4L4.22153 4C4.71439 4 5.07841 4.29736 5.22673 4.65174L5.23285 4.66637L7.9094 12.6908L7.91113 12.6974C7.92602 12.7508 8.01134 12.8318 8.1444 12.8318H14.9348C15.1409 12.8318 15.308 12.9979 15.308 13.2028C15.308 13.4076 15.1409 13.5737 14.9348 13.5737H8.1444C7.68841 13.5737 7.2489 13.3052 7.1277 12.8906L4.46467 4.9073C4.41447 4.79693 4.3204 4.74192 4.22153 4.74192H2.37308C2.167 4.74192 1.99994 4.57584 1.99994 4.37096ZM2.37308 4.15116C2.25098 4.15116 2.15199 4.24957 2.15199 4.37096C2.15199 4.49235 2.25098 4.59076 2.37308 4.59076H4.22153C4.38391 4.59076 4.53202 4.68432 4.60522 4.84947L4.60813 4.85604L7.27342 12.8472C7.37107 13.1835 7.7393 13.4226 8.1444 13.4226H14.9348C15.0569 13.4226 15.1559 13.3241 15.1559 13.2028C15.1559 13.0814 15.0569 12.983 14.9348 12.983H8.1444C7.95787 12.983 7.80145 12.8698 7.76461 12.7378L7.7633 12.7331L5.08921 4.71667L5.08634 4.70981C4.95968 4.40717 4.64808 4.15116 4.22153 4.15116H2.37308Z" fill="#606975"/>
<path d="M7.91113 12.6974L7.9094 12.6908L5.23285 4.66637L5.22673 4.65174C5.07841 4.29736 4.71439 4 4.22153 4L2.37308 4C2.167 4 1.99994 4.16608 1.99994 4.37096C1.99994 4.57584 2.167 4.74192 2.37308 4.74192H4.22153C4.3204 4.74192 4.41447 4.79693 4.46468 4.9073L7.1277 12.8906C7.2489 13.3052 7.68841 13.5737 8.1444 13.5737H14.9348C15.1409 13.5737 15.308 13.4076 15.308 13.2028C15.308 12.9979 15.1409 12.8318 14.9348 12.8318H8.1444C8.01134 12.8318 7.92602 12.7508 7.91113 12.6974ZM7.91113 12.6974L7.83787 12.7176M5.08634 4.70981L5.08921 4.71667L7.7633 12.7331L7.76461 12.7378C7.80145 12.8698 7.95787 12.983 8.1444 12.983H14.9348C15.0569 12.983 15.1559 13.0814 15.1559 13.2028C15.1559 13.3241 15.0569 13.4226 14.9348 13.4226H8.1444C7.7393 13.4226 7.37107 13.1835 7.27342 12.8472L4.60813 4.85604L4.60522 4.84947C4.53202 4.68432 4.38391 4.59076 4.22153 4.59076H2.37308C2.25098 4.59076 2.15199 4.49235 2.15199 4.37096C2.15199 4.24957 2.25098 4.15116 2.37308 4.15116H4.22153C4.64808 4.15116 4.95968 4.40717 5.08634 4.70981ZM5.08634 4.70981L5.15653 4.68078" stroke="#606975" stroke-width="0.2" stroke-miterlimit="10" stroke-linejoin="round"/>
<path fill-rule="evenodd" clip-rule="evenodd" d="M8.3163 15.0394C7.96306 15.0394 7.6767 15.3207 7.6767 15.6678C7.6767 16.0148 7.96306 16.2961 8.3163 16.2961C8.66954 16.2961 8.95589 16.0148 8.95589 15.6678C8.95589 15.3207 8.66954 15.0394 8.3163 15.0394ZM7.03711 15.6678C7.03711 14.9737 7.60982 14.4111 8.3163 14.4111C9.02277 14.4111 9.59549 14.9737 9.59549 15.6678C9.59549 16.3618 9.02277 16.9244 8.3163 16.9244C7.60982 16.9244 7.03711 16.3618 7.03711 15.6678Z" fill="#606975" stroke="#606975" stroke-width="0.2" stroke-miterlimit="10" stroke-linejoin="round"/>
<path fill-rule="evenodd" clip-rule="evenodd" d="M6.96094 15.6677C6.96094 14.931 7.56855 14.3354 8.31615 14.3354C9.06376 14.3354 9.67137 14.931 9.67137 15.6677C9.67137 16.4043 9.06376 16.9999 8.31615 16.9999C7.56855 16.9999 6.96094 16.4043 6.96094 15.6677ZM8.31615 14.4866C7.65081 14.4866 7.11299 15.0162 7.11299 15.6677C7.11299 16.3191 7.65081 16.8487 8.31615 16.8487C8.9815 16.8487 9.51931 16.3191 9.51931 15.6677C9.51931 15.0162 8.9815 14.4866 8.31615 14.4866ZM8.31615 15.1149C8.00404 15.1149 7.75258 15.3632 7.75258 15.6677C7.75258 15.9721 8.00404 16.2204 8.31615 16.2204C8.62826 16.2204 8.87972 15.9721 8.87972 15.6677C8.87972 15.3632 8.62826 15.1149 8.31615 15.1149ZM7.60053 15.6677C7.60053 15.2781 7.92178 14.9638 8.31615 14.9638C8.71052 14.9638 9.03177 15.2781 9.03177 15.6677C9.03177 16.0572 8.71052 16.3715 8.31615 16.3715C7.92178 16.3715 7.60053 16.0572 7.60053 15.6677Z" fill="#606975" stroke="#606975" stroke-width="0.2" stroke-miterlimit="10" stroke-linejoin="round"/>
<path fill-rule="evenodd" clip-rule="evenodd" d="M13.8651 15.0394C13.5119 15.0394 13.2255 15.3207 13.2255 15.6678C13.2255 16.0148 13.5119 16.2961 13.8651 16.2961C14.2184 16.2961 14.5047 16.0148 14.5047 15.6678C14.5047 15.3207 14.2184 15.0394 13.8651 15.0394ZM12.5859 15.6678C12.5859 14.9737 13.1586 14.4111 13.8651 14.4111C14.5716 14.4111 15.1443 14.9737 15.1443 15.6678C15.1443 16.3618 14.5716 16.9244 13.8651 16.9244C13.1586 16.9244 12.5859 16.3618 12.5859 15.6678Z" fill="#606975" stroke="#606975" stroke-width="0.2" stroke-miterlimit="10" stroke-linejoin="round"/>
<path fill-rule="evenodd" clip-rule="evenodd" d="M12.5098 15.6677C12.5098 14.931 13.1174 14.3354 13.865 14.3354C14.6126 14.3354 15.2202 14.931 15.2202 15.6677C15.2202 16.4043 14.6126 16.9999 13.865 16.9999C13.1174 16.9999 12.5098 16.4043 12.5098 15.6677ZM13.865 14.4866C13.1996 14.4866 12.6618 15.0162 12.6618 15.6677C12.6618 16.3191 13.1996 16.8487 13.865 16.8487C14.5303 16.8487 15.0681 16.3191 15.0681 15.6677C15.0681 15.0162 14.5303 14.4866 13.865 14.4866ZM13.865 15.1149C13.5529 15.1149 13.3014 15.3632 13.3014 15.6677C13.3014 15.9721 13.5529 16.2204 13.865 16.2204C14.1771 16.2204 14.4285 15.9721 14.4285 15.6677C14.4285 15.3632 14.1771 15.1149 13.865 15.1149ZM13.1494 15.6677C13.1494 15.2781 13.4706 14.9638 13.865 14.9638C14.2593 14.9638 14.5806 15.2781 14.5806 15.6677C14.5806 16.0572 14.2593 16.3715 13.865 16.3715C13.4706 16.3715 13.1494 16.0572 13.1494 15.6677Z" fill="#606975" stroke="#606975" stroke-width="0.2" stroke-miterlimit="10" stroke-linejoin="round"/>
<path fill-rule="evenodd" clip-rule="evenodd" d="M1.97995 0.952381C1.43637 0.952381 0.952381 1.42526 0.952381 2.06349V17.9365C0.952381 18.5747 1.43637 19.0476 1.97995 19.0476H18.0201C18.5636 19.0476 19.0476 18.5747 19.0476 17.9365V2.06349C19.0476 1.42526 18.5636 0.952381 18.0201 0.952381H1.97995ZM0 2.06349C0 0.948444 0.862523 0 1.97995 0H18.0201C19.1375 0 20 0.948444 20 2.06349V17.9365C20 19.0516 19.1375 20 18.0201 20H1.97995C0.862523 20 0 19.0516 0 17.9365V2.06349Z" fill="#606975"/>
</svg>
